www/assets/icons/text_fields.svg

<svg width="24" height="24" viewBox="0 0 24 24" xmlns="http://www.w3.org/2000/svg" fill='currentColor'><path d="M2.5 4.5V7.5H7.5V19.5H10.5V7.5H15.5V4.5H2.5ZM21.5 9.5H12.5V12.5H15.5V19.5H18.5V12.5H21.5V9.5Z"/></svg>

<svg xmlns="http://www.w3.org/2000/svg" width="24" height="24" viewBox="0 0 24 24" fill='currentColor'><path d="M2.5 4.5v3h5v12h3v-12h5v-3zm19 5h-9v3h3v7h3v-7h3z"/></svg>
